!!!COM: Lassus, Rudolphus
!!!CDT: 1563-1625
!!!OPR: Geistliche Psalmen mit dreyen Stimmen
!!!ONM: 10
!!!OTL@@LA: In Domino confido
!!!OTL-incipit@@DE: Mein herzt und mut mit festem trawen
**kern	**text	**kern	**text	**kern	**text
*staff3	*staff3	*staff2	*staff2	*staff1	*staff1
*Ivox	*	*Ivox	*	*Ivox	*
*I"Bassus	*	*I"Tenor	*	*I"Cantus	*
*I'B	*	*I'T	*	*I'C	*
*clefC3	*	*clefC2	*	*clefG2	*
*k[]	*	*k[]	*	*k[]	*
*d:dor	*	*d:dor	*	*d:dor	*
*M2/1	*	*M2/1	*	*M2/1	*
*met(C|)	*	*met(C|)	*	*met(C|)	*
*MM180	*	*MM180	*	*MM180	*
=1	=1	=1	=1	=1	=1
*xywh-#136:286,71,2778,536	*	*xywh-#80:327,57,2757,535	*	*xywh-#20:316,66,2714,527	*
1d	Mein	2r	.	2r	.
.	.	2a	Mein	2ff	Mein
2d	hertz	4b-	Hertz	2ff	hertz
.	.	4a	.	.	.
2d	und	4a	.	2ff	und
.	.	8g	.	.	.
.	.	8f	.	.	.
=2	=2	=2	=2	=2	=2
2c	mut	2g	.	2ee	mut
2d	mit	2f	und	2a	mit
2e	fe-	2g	mut	2.cc	fe-
2f	-stem	2a	mit	.	.
.	.	.	.	8b	.
.	.	.	.	8a	.
=3	=3	=3	=3	=3	=3
1e	traw-	2cc	fe-	2g	.
.	.	4b	-stem	2g	-stem
.	.	2g	trau-	.	.
1d	-en/	.	.	1a	traw-
.	.	8f#	.	.	.
.	.	8e	.	.	.
.	.	2f#	.	.	.
=4	=4	=4	=4	=4	=4
4r	.	2.g	-en	2b	-en
4g	thut	.	.	.	.
4e	auff	.	.	2cc	thut/
4f	den	4a	Thut	.	.
*	*	*xywh-#80:315,591,2733,406	*	*	*
2e	Her-	2g	auff	2cc	auff
2d	-ren	2f	den	2dd	den
=5	=5	=5	=5	=5	=5
*	*	*	*	*xywh-#20:312,574,2739,422	*
2c	jm-	2g	Her-	2ee	Her-
2A	-mer	2c	-ren	1ff	-ren
*xywh-#136:288,558,2797,465	*	*	*	*	*
1B-	baw-	2.d	jm-	.	.
.	.	.	.	1dd	im-
.	.	4d	-mer	.	.
=6	=6	=6	=6	=6	=6
1A	-en/	1e	baw-	.	.
.	.	.	.	2cc#i	-mer
1r	.	2d	-en/	1dd	baw-
.	.	2g	Wie	.	.
=7	=7	=7	=7	=7	=7
0r	.	2f	sprecht	2a	-en/
.	.	2d	jr	2dd	wie
.	.	2e	dann	2cc	sprecht
.	.	2f	zur	2a	jr
=8	=8	=8	=8	=8	=8
1r	.	2g	see-	2b	dann
.	.	2e	-len	2cc#	zur
1d	wie	4f	mein	4dd	see-
.	.	4g	.	4ee	.
.	.	4a	.	4ff	.
.	.	4f	.	4dd	.
=9	=9	=9	=9	=9	=9
2c	sprecht	2g	.	2.ee	.
2A	jr	4r	.	.	.
*	*	*	*ij	*	*
.	.	4c	wie	4ff	.
*	*	*xywh-#80:311,995,2745,420	*	*	*
2B	dann	2d	sprecht	4gg	.
.	.	.	.	4ff	.
2c	zur	2e	jr	2.ee	.
=10	=10	=10	=10	=10	=10
2d	see-	2.f	dann	.	.
.	.	.	.	4ee	.
2B-	-le	.	.	1dd	.
.	.	4d	zur	.	.
1A	mein/	2f	see-	.	.
.	.	2e	-len	2cc#	-len
=11	=11	=11	=11	=11	=11
*	*	*	*	*xywh-#20:308,982,2726,428	*
2r	.	1d	mein	2dd	mein/
*	*	*	*Xij	*	*
2f	heb	.	.	2a	heb
2d	dich	2a	Heb	2ff	dich
2d	heb	1f	dich/	2ff	heb
=12	=12	=12	=12	=12	=12
1B-	dich/	.	.	2.dd	dich/
.	.	2d	fleuch	.	.
.	.	.	.	8cc	.
.	.	.	.	8b-i	.
2r	.	2d	in	2a	.
2A	fleuch	2e	der	2cc	fleuch
=13	=13	=13	=13	=13	=13
2A	in	4f	eil	1cc	in
.	.	4e	.	.	.
2A	der	4a	.	.	.
.	.	4g	.	.	.
*xywh-#136:284,932,2790,495	*	*	*	*	*
4a	eil	4f	.	2cc	der
4g	.	4e	.	.	.
4f	.	2d	.	1ff	eil
4e	.	.	.	.	.
=14	=14	=14	=14	=14	=14
2d	.	2.a	von	.	.
2c	von	.	.	2ee	von
.	.	4g	.	.	.
*	*	*xywh-#80:308,1409,2743,425	*	*	*
1d	hin-	2f#	.	2.dd	hin-
.	.	2.a	hin-	.	.
.	.	.	.	4cc	.
=15	=15	=15	=15	=15	=15
2e	-nen/	.	.	1b	.
.	.	8g#i	.	.	.
.	.	8f#i	.	.	.
2e	auff	2g#i	.	.	.
2f	dei-	2a	-nen	1a	-nen
2d	-nen	2fny	auff	.	.
=16	=16	=16	=16	=16	=16
1c	berg	2g	dei-	2r	.
.	.	2a	-nen	2cc	Auff
2r	.	2b-	berg	2dd	dei-
*	*ij	*	*	*	*
2c	auff	2g	auff	2ee	-nen
=17	=17	=17	=17	=17	=17
2d	dei-	2.b-	dei-	2ff	berg
2e	-nen	.	.	2gg	hin
.	.	4b-	-nen	.	.
*	*	*	*	*xywh-#20:306,1404,2718,419	*
1f	berg	2a	berg	2cc	zu
*	*Xij	*	*	*	*
.	.	2d	hin	2a	en-
=18	=18	=18	=18	=18	=18
1c	hin	2g	zu	2ee	-trin-
.	.	2e	en-	2cc	-nen
2A	zu	1f	-trin-	2r	.
2B	en-	.	.	2dd	zu
=19	=19	=19	=19	=19	=19
2c	-trin-	1e	-nen/	2g	en-
2A	-nen/	.	.	1cc	-trin-
*	*	*xywh-#80:304,1814,2745,451	*	*	*
2r	.	1f	Wie	.	.
2d	wie	.	.	2a	-nen/
=20	=20	=20	=20	=20	=20
*xywh-#136:281,1345,2781,506	*	*	*	*	*
2c	ein	2g	ein	4ee	wie
.	.	.	.	4ee	ein
2A	schnell	2c	schnel	2ee	schnel
2.a	flie-	4d	flie-	4ff	flie-
.	.	4e	.	4ee	.
.	.	4f	.	4dd	.
4g	.	4e	.	4cc	.
=21	=21	=21	=21	=21	=21
4f	.	4a	.	4dd	.
4e	.	4g	.	4ee	.
4d	.	4a	.	4ff	.
8c	.	4b	.	8ee	.
8B	.	.	.	8dd	.
4A	.	4cc	.	2ee	.
4G	.	4b	.	.	.
4F	.	4cc	.	2a	-gends
4A	.	4c	.	.	.
=22	=22	=22	=22	=22	=22
*	*	*	*	*xywh-#20:304,1811,2722,394	*
2G	.	2.d	.	4b	vö-
.	.	.	.	4cc	.
2B-	-gent	.	.	1dd	.
.	.	4d	-gents	.	.
2.A	vö-	2f	vö-	.	.
.	.	2e	-ge-	2cc#	-ge-
4A	-ge-	.	.	.	.
=23	=23	=23	=23	=23	=23
0dll	-lein.	0dll	-lein.	0ddll	-lein.
==	==	==	==	==	==
*-	*-	*-	*-	*-	*-
!!!RDF**kern: l = terminal long
!!!RDF**kern: i = editorial accidental
!!!AGN: Psalm; Tricinium
!!!LIB: Ulenberg, Caspar
!!!LIB-CDT: 1548/12/24-1617/02/16
!!!YOR: https://mdz-nbn-resolving.de/details:bsb00075346
!!!YOO: München, Bayerische Staatsbibliothek
!!!URL-scan: https://www.digitale-sammlungen.de/de/view/bsb00075346?page=20 Cantus
!!!URL-scan: https://www.digitale-sammlungen.de/de/view/bsb00075346?page=80 Tenor
!!!URL-scan: https://www.digitale-sammlungen.de/de/view/bsb00075346?page=136 Bassus
!!!IIIF: https://api.digitale-sammlungen.de/iiif/presentation/v2/bsb00075346/manifest
!!!EED: Wolfgang Drescher
!!!END: 2023/02/17
!!!ENC: Wolfgang Drescher
!!!EEV: 2023/02/17
!!!title: @{ONM}. @{OTL} / <i>@{OTL-incipit@@DE}</i>